X: 2821
T: Bar's Bruno
R: polka
M: 2/4
K: Bminor
(3A/B/c/|:dB fB|g>f ed|cA aA|BA cA|
dB fB|g/a/g/f/ ed|ce ac|1 B2 B(3A/B/c/:|2 B2 Bd/c/||
BF cF|dB GF|Ee dB|cd Bd/c/|
BF cF|dB GF|Ec fc|B2 Bd/c/|
BF cF|dB GF|Ee dB|cd eg|
fb bf|g/a/g/f/ ed|ca- ac|B2 B(3A/B/c/||

